assets/icons/gear-dots.svg

<?xml version="1.0" encoding="UTF-8" standalone="no"?>
<svg
   viewBox="0 0 24 24"
   height="24"
   id="svg7384"
   version="1.1"
   width="24"
   sodipodi:docname="preferences-other.svg"
   inkscape:version="1.2 (1:1.2.1+202207142221+cd75a1ee6d)"
   xmlns:inkscape="http://www.inkscape.org/namespaces/inkscape"
   xmlns:sodipodi="http://sodipodi.sourceforge.net/DTD/sodipodi-0.dtd"
   xmlns="http://www.w3.org/2000/svg"
   xmlns:svg="http://www.w3.org/2000/svg"
   xmlns:rdf="http://www.w3.org/1999/02/22-rdf-syntax-ns#"
   xmlns:cc="http://creativecommons.org/ns#"
   xmlns:dc="http://purl.org/dc/elements/1.1/">
  <sodipodi:namedview
     id="namedview23"
     pagecolor="#ffffff"
     bordercolor="#666666"
     borderopacity="1.0"
     inkscape:pageshadow="2"
     inkscape:pageopacity="0.0"
     inkscape:pagecheckerboard="0"
     showgrid="true"
     inkscape:snap-page="false"
     inkscape:zoom="28"
     inkscape:cx="8.3928571"
     inkscape:cy="13.785714"
     inkscape:window-width="1920"
     inkscape:window-height="1043"
     inkscape:window-x="0"
     inkscape:window-y="0"
     inkscape:window-maximized="1"
     inkscape:current-layer="svg7384"
     inkscape:snap-center="true"
     inkscape:showpageshadow="2"
     inkscape:deskcolor="#d1d1d1">
    <inkscape:grid
       type="xygrid"
       id="grid839" />
  </sodipodi:namedview>
  <metadata
     id="metadata20854">
    <rdf:RDF>
      <cc:Work
         rdf:about="">
        <dc:format>image/svg+xml</dc:format>
        <dc:type
           rdf:resource="http://purl.org/dc/dcmitype/StillImage" />
      </cc:Work>
    </rdf:RDF>
  </metadata>
  <defs
     id="defs7386">
    <linearGradient
       id="linearGradient5606"
       inkscape:swatch="solid">
      <stop
         id="stop5608"
         offset="0"
         style="stop-color:#000000;stop-opacity:1;" />
    </linearGradient>
    <linearGradient
       id="linearGradient4526"
       inkscape:swatch="solid">
      <stop
         id="stop4528"
         offset="0"
         style="stop-color:#ffffff;stop-opacity:1;" />
    </linearGradient>
    <linearGradient
       id="linearGradient3600-4"
       inkscape:swatch="gradient">
      <stop
         id="stop3602-7"
         offset="0"
         style="stop-color:#f4f4f4;stop-opacity:1" />
      <stop
         id="stop3604-6"
         offset="1"
         style="stop-color:#dbdbdb;stop-opacity:1" />
    </linearGradient>
  </defs>
  <path
     id="path903"
     style="fill:#808080;fill-rule:evenodd;stroke-width:1.5;stroke-linecap:square;stroke-linejoin:round;fill-opacity:1"
     d="M 10 2 L 10 3.2480469 A 9 9 0 0 0 7.9042969 4.0078125 L 7.1035156 3.0546875 L 4.0390625 5.625 L 4.84375 6.5820312 A 9 9 0 0 0 3.7207031 8.5078125 L 2.5 8.2929688 L 1.8046875 12.232422 L 3.03125 12.449219 A 9 9 0 0 0 3.4082031 14.650391 L 2.3398438 15.267578 L 4.3398438 18.732422 L 5.4160156 18.111328 A 9 9 0 0 0 7.1210938 19.560547 L 6.7011719 20.712891 L 10.458984 22.080078 L 10.880859 20.919922 A 9 9 0 0 0 12 21 A 9 9 0 0 0 13.003906 20.927734 C 13.017663 20.540121 13.137262 20.181214 13.339844 19.880859 A 8 8 0 0 1 12 20 A 8 8 0 0 1 4 12 A 8 8 0 0 1 4.0976562 10.748047 A 8 8 0 0 1 12 4 A 8 8 0 0 1 17.035156 5.7832031 A 8 8 0 0 1 19.902344 10.748047 A 8 8 0 0 1 20 12 A 8 8 0 0 1 15.84375 19 L 17.628906 19 A 9 9 0 0 0 18.583984 18.111328 L 19.660156 18.732422 L 21.660156 15.267578 L 20.591797 14.650391 A 9 9 0 0 0 20.96875 12.449219 L 22.195312 12.232422 L 21.5 8.2929688 L 20.292969 8.5058594 A 9 9 0 0 0 19.171875 6.5644531 L 19.960938 5.625 L 16.896484 3.0546875 L 16.107422 3.9941406 A 9 9 0 0 0 14 3.2285156 L 14 2 L 10 2 z M 12 5 A 7 7 0 0 0 5 12 A 7 7 0 0 0 12 19 A 7 7 0 0 0 19 12 A 7 7 0 0 0 12 5 z M 12 6 A 6 6 0 0 1 18 12 A 6 6 0 0 1 12 18 A 6 6 0 0 1 6 12 A 6 6 0 0 1 12 6 z M 15 20 A 1 1 0 0 0 14 21 A 1 1 0 0 0 15 22 A 1 1 0 0 0 16 21 A 1 1 0 0 0 15 20 z M 18 20 A 1 1 0 0 0 17 21 A 1 1 0 0 0 18 22 A 1 1 0 0 0 19 21 A 1 1 0 0 0 18 20 z M 21 20 A 1 1 0 0 0 20 21 A 1 1 0 0 0 21 22 A 1 1 0 0 0 22 21 A 1 1 0 0 0 21 20 z " />
</svg>

<svg height="24" width="24" xmlns="http://www.w3.org/2000/svg"><path style="fill:gray;stroke-width:1.5;stroke-linecap:square;stroke-linejoin:round;fill-opacity:1" d="M10 2v1.248a9 9 0 0 0-2.096.76l-.8-.953-3.065 2.57.805.957A9 9 0 0 0 3.72 8.508L2.5 8.293l-.695 3.94 1.226.216a9 9 0 0 0 .377 2.201l-1.068.618 2 3.464 1.076-.62a9 9 0 0 0 1.705 1.449l-.42 1.152 3.758 1.367.422-1.16A9 9 0 0 0 12 21a9 9 0 0 0 1.004-.072 1.99 1.99 0 0 1 .336-1.047A8 8 0 0 1 12 20a8 8 0 0 1-8-8 8 8 0 0 1 .098-1.252A8 8 0 0 1 12 4a8 8 0 0 1 5.035 1.783 8 8 0 0 1 2.867 4.965A8 8 0 0 1 20 12a8 8 0 0 1-4.156 7h1.785a9 9 0 0 0 .955-.889l1.076.621 2-3.464-1.068-.618a9 9 0 0 0 .377-2.2l1.226-.218-.695-3.939-1.207.213a9 9 0 0 0-1.121-1.942l.789-.939-3.065-2.57-.789.94A9 9 0 0 0 14 3.228V2h-4zm2 3a7 7 0 0 0-7 7 7 7 0 0 0 7 7 7 7 0 0 0 7-7 7 7 0 0 0-7-7zm0 1a6 6 0 0 1 6 6 6 6 0 0 1-6 6 6 6 0 0 1-6-6 6 6 0 0 1 6-6zm3 14a1 1 0 0 0-1 1 1 1 0 0 0 1 1 1 1 0 0 0 1-1 1 1 0 0 0-1-1zm3 0a1 1 0 0 0-1 1 1 1 0 0 0 1 1 1 1 0 0 0 1-1 1 1 0 0 0-1-1zm3 0a1 1 0 0 0-1 1 1 1 0 0 0 1 1 1 1 0 0 0 1-1 1 1 0 0 0-1-1z"/></svg>
